svgs/thin/hospital-user.svg

<svg xmlns="http://www.w3.org/2000/svg" viewBox="0 0 576 512"><!--! Font Awesome Pro 6.5.1 by @fontawesome - https://fontawesome.com License - https://fontawesome.com/license (Commercial License) Copyright 2023 Fonticons, Inc. --><path d="M0 56C0 25.1 25.1 0 56 0H264c30.9 0 56 25.1 56 56V271.8 336v31.8c-5.6 3.1-11 6.7-16 10.7V336 56c0-22.1-17.9-40-40-40H56C33.9 16 16 33.9 16 56V272H152c4.4 0 8 3.6 8 8s-3.6 8-8 8H16v80H152c4.4 0 8 3.6 8 8s-3.6 8-8 8H16v72c0 22.1 17.9 40 40 40H258.8c1.7 5.7 4.1 11.1 7.2 16H56c-30.9 0-56-25.1-56-56V56zm152 0h16c13.3 0 24 10.7 24 24V96h16c13.3 0 24 10.7 24 24v16c0 13.3-10.7 24-24 24H192v16c0 13.3-10.7 24-24 24H152c-13.3 0-24-10.7-24-24V160H112c-13.3 0-24-10.7-24-24V120c0-13.3 10.7-24 24-24h16V80c0-13.3 10.7-24 24-24zm-8 24v24c0 4.4-3.6 8-8 8H112c-4.4 0-8 3.6-8 8v16c0 4.4 3.6 8 8 8h24c4.4 0 8 3.6 8 8v24c0 4.4 3.6 8 8 8h16c4.4 0 8-3.6 8-8V152c0-4.4 3.6-8 8-8h24c4.4 0 8-3.6 8-8V120c0-4.4-3.6-8-8-8H184c-4.4 0-8-3.6-8-8V80c0-4.4-3.6-8-8-8H152c-4.4 0-8 3.6-8 8zM496 272a64 64 0 1 0 -128 0 64 64 0 1 0 128 0zM304 477.1c0 10.4 8.5 18.9 18.9 18.9H541.1c10.4 0 18.9-8.5 18.9-18.9c0-42.6-34.5-77.1-77.1-77.1H381.1c-42.6 0-77.1 34.5-77.1 77.1zM432 192a80 80 0 1 1 0 160 80 80 0 1 1 0-160zM381.1 384H482.9c51.4 0 93.1 41.7 93.1 93.1c0 19.3-15.6 34.9-34.9 34.9H322.9c-19.3 0-34.9-15.6-34.9-34.9c0-51.4 41.7-93.1 93.1-93.1z"/></svg>

<svg xmlns="http://www.w3.org/2000/svg" viewBox="0 0 576 512"><!--! Font Awesome Pro 6.1.1 by @fontawesome - https://fontawesome.com License - https://fontawesome.com/license (Commercial License) Copyright 2022 Fonticons, Inc. --><path d="M0 56C0 25.07 25.07 0 56 0H264C294.9 0 320 25.07 320 56V344C320 348.4 316.4 352 312 352C307.6 352 304 348.4 304 344V56C304 33.91 286.1 16 264 16H56C33.91 16 16 33.91 16 56V272H152C156.4 272 160 275.6 160 280C160 284.4 156.4 288 152 288H16V368H152C156.4 368 160 371.6 160 376C160 380.4 156.4 384 152 384H16V456C16 478.1 33.91 496 56 496H248C252.4 496 256 499.6 256 504C256 508.4 252.4 512 248 512H56C25.07 512 0 486.9 0 456V56zM168 56C181.3 56 192 66.75 192 80V96H208C221.3 96 232 106.7 232 120V136C232 149.3 221.3 160 208 160H192V176C192 189.3 181.3 200 168 200H152C138.7 200 128 189.3 128 176V160H112C98.75 160 88 149.3 88 136V120C88 106.7 98.75 96 112 96H128V80C128 66.75 138.7 56 152 56H168zM144 112H112C107.6 112 104 115.6 104 120V136C104 140.4 107.6 144 112 144H144V176C144 180.4 147.6 184 152 184H168C172.4 184 176 180.4 176 176V144H208C212.4 144 216 140.4 216 136V120C216 115.6 212.4 112 208 112H176V80C176 75.58 172.4 72 168 72H152C147.6 72 144 75.58 144 80V112zM352 272C352 227.8 387.8 192 432 192C476.2 192 512 227.8 512 272C512 316.2 476.2 352 432 352C387.8 352 352 316.2 352 272zM432 208C396.7 208 368 236.7 368 272C368 307.3 396.7 336 432 336C467.3 336 496 307.3 496 272C496 236.7 467.3 208 432 208zM482.9 384C534.3 384 576 425.7 576 477.1C576 496.4 560.4 512 541.1 512H322.9C303.6 512 288 496.4 288 477.1C288 425.7 329.7 384 381.1 384H482.9zM322.9 496H541.1C551.5 496 560 487.5 560 477.1C560 434.5 525.5 400 482.9 400H381.1C338.5 400 304 434.5 304 477.1C304 487.5 312.5 496 322.9 496V496z"/></svg>
